build/img/sprites/quote-left.svg

<svg width="32" height="32" viewBox="0 0 32 32" fill="none" xmlns="http://www.w3.org/2000/svg">
<path d="M4.92125 8.38925C6.79192 6.36125 9.62259 5.33325 13.3333 5.33325H14.6666V9.09192L13.5946 9.30659C11.7679 9.67192 10.4973 10.3906 9.81725 11.4453C9.46233 12.0134 9.26109 12.664 9.23325 13.3333H13.3333C13.6869 13.3333 14.026 13.4737 14.2761 13.7238C14.5261 13.9738 14.6666 14.313 14.6666 14.6666V23.9999C14.6666 25.4706 13.4706 26.6666 11.9999 26.6666H3.99992C3.6463 26.6666 3.30716 26.5261 3.05711 26.2761C2.80706 26.026 2.66659 25.6869 2.66659 25.3333V18.6666L2.67059 14.7746C2.65859 14.6266 2.40525 11.1199 4.92125 8.38925ZM26.6666 26.6666H18.6666C18.313 26.6666 17.9738 26.5261 17.7238 26.2761C17.4737 26.026 17.3333 25.6869 17.3333 25.3333V18.6666L17.3373 14.7746C17.3253 14.6266 17.0719 11.1199 19.5879 8.38925C21.4586 6.36125 24.2893 5.33325 27.9999 5.33325H29.3333V9.09192L28.2613 9.30659C26.4346 9.67192 25.1639 10.3906 24.4839 11.4453C24.129 12.0134 23.9278 12.664 23.8999 13.3333H27.9999C28.3535 13.3333 28.6927 13.4737 28.9427 13.7238C29.1928 13.9738 29.3333 14.313 29.3333 14.6666V23.9999C29.3333 25.4706 28.1373 26.6666 26.6666 26.6666Z" fill="#4988D1"/>
</svg>

<svg width="32" height="32" viewBox="0 0 32 32" fill="none" xmlns="http://www.w3.org/2000/svg"><path d="M4.921 8.39c1.87-2.029 4.702-3.057 8.412-3.057h1.334v3.759l-1.072.215c-1.827.365-3.098 1.084-3.778 2.138a3.867 3.867 0 00-.584 1.888h4.1a1.333 1.333 0 011.334 1.334V24A2.67 2.67 0 0112 26.667H4a1.334 1.334 0 01-1.333-1.334v-6.666l.004-3.892c-.012-.148-.266-3.655 2.25-6.386zm21.746 18.277h-8a1.333 1.333 0 01-1.334-1.334v-6.666l.004-3.892c-.012-.148-.265-3.655 2.25-6.386C21.46 6.361 24.29 5.333 28 5.333h1.333v3.759l-1.072.215c-1.826.365-3.097 1.084-3.777 2.138a3.867 3.867 0 00-.584 1.888H28a1.333 1.333 0 011.333 1.334V24a2.67 2.67 0 01-2.666 2.667z" fill="#4988D1"/></svg>
